assets/images/clarity_application-solid.svg

<svg width="32" height="32" viewBox="0 0 32 32" fill="none" xmlns="http://www.w3.org/2000/svg">
<path d="M28.4444 3.55554H3.55555C3.08405 3.55554 2.63187 3.74284 2.29847 4.07624C1.96507 4.40964 1.77777 4.86182 1.77777 5.33332V26.6667C1.77777 27.1381 1.96507 27.5903 2.29847 27.9237C2.63187 28.2571 3.08405 28.4444 3.55555 28.4444H28.4444C28.9159 28.4444 29.3681 28.2571 29.7015 27.9237C30.0349 27.5903 30.2222 27.1381 30.2222 26.6667V5.33332C30.2222 4.86182 30.0349 4.40964 29.7015 4.07624C29.3681 3.74284 28.9159 3.55554 28.4444 3.55554V3.55554ZM28.4444 9.06665H3.55555V5.33332H28.4444V9.06665Z" fill="#3F3F40"/>
<path d="M4.44446 6.22223H6.22224V8.00001H4.44446V6.22223Z" fill="#3F3F40"/>
<path d="M8 6.22223H9.77778V8.00001H8V6.22223Z" fill="#3F3F40"/>
<path d="M11.5555 6.22223H13.3333V8.00001H11.5555V6.22223Z" fill="#3F3F40"/>
</svg>

<svg width="32" height="32" fill="none" xmlns="http://www.w3.org/2000/svg"><path d="M28.444 3.556H3.556a1.778 1.778 0 00-1.778 1.777v21.334a1.778 1.778 0 001.778 1.777h24.888a1.778 1.778 0 001.778-1.777V5.333a1.778 1.778 0 00-1.778-1.777zm0 5.51H3.556V5.334h24.888v3.734z" fill="#3F3F40"/><path d="M4.444 6.222h1.778V8H4.444V6.222zm3.556 0h1.778V8H8V6.222zm3.556 0h1.777V8h-1.777V6.222z" fill="#3F3F40"/></svg>
